X:61
T:score151
L:1/8
Q:1/4=96
M:4/4
I:linebreak $
K:C
 G3 A GEDC | c4 A2 z2 | G2 E2 E3 C |$ D6 z2 | G3 A GEDC | c4 A2 z2 | AGEC E2 D2 |$ C6 z2 |] %8
